assets/color/very_cold.svg

<?xml version="1.0" encoding="UTF-8"?>
<svg fill="none" version="1.1" viewBox="0 0 48 48" xmlns="http://www.w3.org/2000/svg">
<rect width="48" height="48" fill="#000" data-bg="1"/>
<g fill="#00ffed" mask="url(#b)" stroke="#fff" stroke-width="1px">
<path d="m37 3a6.91 6.91 0 0 0-6.918 6.909v18.429c0 0.158 0 0.304 0.013 0.462-1.904 1.823-3.095 4.373-3.095 7.213 0 5.509 4.471 9.987 10 9.987s10-4.465 10-9.987c0-2.84-1.19-5.403-3.095-7.213 0.013-0.158 0.013-0.304 0.013-0.462v-18.429c0.013-3.818-3.095-6.909-6.918-6.909z" clip-rule="evenodd" fill="#00ffed" fill-rule="evenodd" stroke="none" stroke-width="1px"/>
</g>
<path d="m37 5.51a3.746 3.746 0 0 0-3.743 3.739v20.978a6.905 6.905 0 0 0-3.175 5.812 6.91 6.91 0 0 0 6.918 6.909 6.91 6.91 0 0 0 6.918-6.909c0-2.43-1.27-4.584-3.175-5.812v-20.978c0.014-2.061-1.666-3.739-3.743-3.739z" clip-rule="evenodd" fill="#000" fill-rule="evenodd" stroke="#fff" stroke-width="1px"/>
<path d="m37 32.948a3.746 3.746 0 0 1 3.743 3.739 3.745 3.745 0 0 1-3.743 3.738 3.746 3.746 0 0 1-3.743-3.738 3.746 3.746 0 0 1 3.743-3.739z" fill="#f00" stroke-width="1px"/>
<path d="m37 22.961a1.33 1.33 0 0 1 1.336 1.334v9.314c0 0.74-0.595 1.334-1.336 1.334a1.332 1.332 0 0 1-1.336-1.334v-9.314c0.013-0.726 0.608-1.334 1.336-1.334z" fill="#f00" stroke-width="1px"/>
<path d="m22.603 38.646v-7.341c3.1605-0.73595 5.3969-3.5529 5.397-6.798 0.0055-3.247-2.2334-6.067-5.397-6.798v-7.341l4.634-4.665 0.46-0.464-0.46-0.463-1.29-1.299-0.461-0.477-4.437 4.466-3.988-3.989-0.461-0.464-0.461 0.464 0.448 0.464-0.461-0.464-1.29 1.299-0.461 0.463 0.461 0.464 4.634 4.665v7.327c-0.75001 0.17299-1.4663 0.46863-2.12 0.875l-5.147-5.181v-7.248h-3.133v6.334h-6.28v3.153h7.201l5.148 5.182c-0.4078 0.65227-0.70166 1.3692-0.869 2.12h-5.964l-5.0731-5.078-1.7719 1.712-0.461 0.464 0.461 0.464 3.975 4.001-3.975 4.002 0.461 0.477-0.461-0.464-0.461 0.464 0.461 0.464 1.29 1.299 0.461 0.463 0.46-0.463 4.634-4.665h5.964c0.16963 0.75659 0.46796 1.4784 0.882 2.134l-5.147 5.181h-7.215v3.154h6.293v6.334h3.133v-7.249l5.134-5.181c0.65265 0.4113 1.3691 0.71138 2.12 0.888v7.315l-5.095 5.128 0.461 0.464 1.29 1.298 0.461 0.464 0.46-0.464 3.976-4.002 3.976 4.002 0.46 0.464 0.461-0.464 1.29-1.298 0.461-0.464-0.461-0.464zm-1.461-10.283h-0.211c-2.054-0.053-3.712-1.749-3.726-3.83v-0.04c0.014-2.12 1.725-3.843 3.831-3.843 2.12 0 3.831 1.723 3.831 3.857 0.0022 2.0799-1.6463 3.7864-3.725 3.856z" fill="#64dcff" stroke="#fff" stroke-width="1px"/>
<defs>
<mask id="b" x="0" y="0" width="48" height="48" style="mask-type:luminance" maskUnits="userSpaceOnUse">
<path d="M0 0h48v48H0V0Z" fill="#f00" stroke="#fff" stroke-width="1px"/>
</mask>
</defs>
</svg>

<?xml version="1.0" encoding="UTF-8" standalone="no"?>
<svg
   fill="none"
   viewBox="0 0 48 48"
   version="1.1"
   id="svg8"
   sodipodi:docname="very_cold.svg"
   inkscape:version="1.4.3 (1:1.4.3+202512261035+0d15f75042)"
   xmlns:inkscape="http://www.inkscape.org/namespaces/inkscape"
   xmlns:sodipodi="http://sodipodi.sourceforge.net/DTD/sodipodi-0.dtd"
   xmlns="http://www.w3.org/2000/svg"
   xmlns:svg="http://www.w3.org/2000/svg">
  <sodipodi:namedview
     id="namedview8"
     pagecolor="#ffffff"
     bordercolor="#666666"
     borderopacity="1.0"
     inkscape:showpageshadow="2"
     inkscape:pageopacity="0.0"
     inkscape:pagecheckerboard="0"
     inkscape:deskcolor="#d1d1d1"
     inkscape:zoom="7.7041494"
     inkscape:cx="4.4781063"
     inkscape:cy="19.145527"
     inkscape:window-width="1920"
     inkscape:window-height="1011"
     inkscape:window-x="0"
     inkscape:window-y="32"
     inkscape:window-maximized="1"
     inkscape:current-layer="svg8" />
  <rect
     x="0.0"
     y="0.0"
     width="48.0"
     height="48.0"
     fill="#ff0000"
     stroke="none"
     data-bg="1"
     id="rect1"
     style="fill:#000000;fill-opacity:1" />
  <g
     mask="url(#b)"
     fill="#ff0000"
     stroke="#ffffff"
     stroke-width="1px"
     id="g2"
     style="stroke:none;fill:#00ffed;fill-opacity:1">
    <path
       fill-rule="evenodd"
       d="m 37,3 a 6.91,6.91 0 0 0 -6.918,6.909 v 18.429 c 0,0.158 0,0.304 0.013,0.462 C 28.191,30.623 27,33.173 27,36.013 27,41.522 31.471,46 37,46 c 5.529,0 10,-4.465 10,-9.987 0,-2.84 -1.19,-5.403 -3.095,-7.213 0.013,-0.158 0.013,-0.304 0.013,-0.462 V 9.909 C 43.931,6.091 40.823,3 37,3 Z"
       clip-rule="evenodd"
       fill="#ff0000"
       stroke="#ffffff"
       stroke-width="1px"
       id="path2"
       style="stroke:none;fill:#00ffed;fill-opacity:1" />
  </g>
  <path
     fill-rule="evenodd"
     d="m 37,5.51 a 3.746,3.746 0 0 0 -3.743,3.739 v 20.978 a 6.905,6.905 0 0 0 -3.175,5.812 6.91,6.91 0 0 0 6.918,6.909 6.91,6.91 0 0 0 6.918,-6.909 c 0,-2.43 -1.27,-4.584 -3.175,-5.812 V 9.249 C 40.757,7.188 39.077,5.51 37,5.51 Z"
     clip-rule="evenodd"
     fill="#ff0000"
     stroke="#ffffff"
     stroke-width="1px"
     id="path3"
     style="fill:#000000;fill-opacity:1" />
  <path
     d="M 37,32.948 A 3.746,3.746 0 0 1 40.743,36.687 3.745,3.745 0 0 1 37,40.425 3.746,3.746 0 0 1 33.257,36.687 3.746,3.746 0 0 1 37,32.948 Z"
     fill="#ffffff"
     stroke="none"
     id="path4"
     style="stroke-width:1px;fill:#ff0000;fill-opacity:1" />
  <path
     d="m 37,22.961 a 1.33,1.33 0 0 1 1.336,1.334 v 9.314 c 0,0.74 -0.595,1.334 -1.336,1.334 A 1.332,1.332 0 0 1 35.664,33.609 V 24.295 C 35.677,23.569 36.272,22.961 37,22.961 Z"
     fill="#ffffff"
     stroke="none"
     id="path5"
     style="stroke-width:1px;fill:#ff0000;fill-opacity:1" />
  <path
     d="m 22.603,38.646 v -7.341 c 3.160503,-0.735949 5.396942,-3.552943 5.397,-6.798 0.0055,-3.246992 -2.233354,-6.067023 -5.397,-6.798 V 10.368 L 27.237,5.703 27.697,5.239 27.237,4.776 25.947,3.477 25.486,3 25.025,3.464 21.049,7.466 17.061,3.477 16.6,3.013 l -0.461,0.464 0.448,0.464 -0.461,-0.464 -1.29,1.299 -0.461,0.463 0.461,0.464 4.634,4.665 v 7.327 c -0.750011,0.17299 -1.466312,0.468633 -2.12,0.875 L 12.203,13.389 V 6.141 H 9.07 v 6.334 H 2.79 v 3.153 h 7.201 l 5.148,5.182 c -0.407802,0.652269 -0.701662,1.369164 -0.869,2.12 H 8.306 L 3.2328586,17.851978 1.461,19.564 1,20.028 1.461,20.492 5.436,24.493 1.461,28.495 1.922,28.972 1.461,28.508 1,28.972 l 0.461,0.464 1.29,1.299 0.461,0.463 0.46,-0.463 4.634,-4.665 h 5.964 c 0.169626,0.756593 0.467965,1.478423 0.882,2.134 l -5.147,5.181 H 2.79 v 3.154 h 6.293 v 6.334 h 3.133 v -7.249 l 5.134,-5.181 c 0.652647,0.411297 1.369055,0.711377 2.12,0.888 v 7.315 l -4.634,4.664 -0.461,0.464 0.461,0.464 1.29,1.298 0.461,0.464 0.46,-0.464 3.976,-4.002 3.976,4.002 0.46,0.464 0.461,-0.464 1.29,-1.298 0.461,-0.464 L 27.21,43.31 Z M 21.142,28.363 h -0.211 c -2.054,-0.053 -3.712,-1.749 -3.726,-3.83 v -0.04 c 0.014,-2.12 1.725,-3.843 3.831,-3.843 2.12,0 3.831,1.723 3.831,3.857 0.0022,2.079904 -1.64626,3.786383 -3.725,3.856 z"
     fill="#ff0000"
     stroke="#ffffff"
     stroke-width="1px"
     id="path6"
     style="fill:#64dcff;fill-opacity:1;stroke:none"
     sodipodi:nodetypes="cccccccccccccccccccccccccccccccccccccccccccccccccccccccccccccccccccccccccccccscc" />
  <defs
     id="defs8">
    <mask
       id="b"
       width="48"
       height="48"
       x="0"
       y="0"
       maskUnits="userSpaceOnUse"
       style="mask-type:luminance">
      <path
         d="M0 0h48v48H0V0Z"
         fill="#ff0000"
         stroke="white"
         stroke-width="1px"
         id="path1" />
    </mask>
  </defs>
</svg>
